www/assets/icons/hourglass_empty.svg

<svg xmlns="http://www.w3.org/2000/svg" width="24" height="24" viewBox="0 0 24 24" fill='currentColor'><path d="M6 2v6h.01L6 8.01 10 12l-4 4 .01.01H6V22h12v-5.99h-.01L18 16l-4-4 4-3.99-.01-.01H18V2zm10 14.5V20H8v-3.5l4-4zm-4-5-4-4V4h8v3.5z"/></svg>

<svg width="24" height="24" viewBox="0 0 24 24" xmlns="http://www.w3.org/2000/svg" fill='currentColor'><path d="M6 2V8H6.01L6 8.01L10 12L6 16L6.01 16.01H6V22H18V16.01H17.99L18 16L14 12L18 8.01L17.99 8H18V2H6ZM16 16.5V20H8V16.5L12 12.5L16 16.5ZM12 11.5L8 7.5V4H16V7.5L12 11.5Z"/></svg>
